src/lib/packages/icons/src/assets/line/cloud-download.svg

<svg width="24" height="24" viewBox="0 0 24 24" fill="none" xmlns="http://www.w3.org/2000/svg">
<path d="M21.75 11C21.75 13.727 19.8139 16.097 17.1479 16.635C17.0979 16.645 17.048 16.65 16.999 16.65C16.649 16.65 16.3369 16.404 16.2649 16.048C16.1829 15.642 16.4461 15.246 16.8521 15.165C18.8221 14.768 20.25 13.016 20.25 11C20.25 8.656 18.344 6.75 16 6.75C15.717 6.75 15.4449 6.77503 15.1689 6.82703C14.8639 6.88503 14.5551 6.74801 14.3931 6.48401C14.1011 6.01301 13.7301 5.57298 13.2891 5.17798C12.2511 4.25798 10.904 3.75 9.5 3.75C6.329 3.75 3.75 6.329 3.75 9.5C3.75 11.828 5.13906 13.911 7.28906 14.808C7.67106 14.967 7.85089 15.407 7.69189 15.789C7.53289 16.172 7.09194 16.351 6.71094 16.192C4.00094 15.062 2.25 12.435 2.25 9.5C2.25 5.502 5.502 2.25 9.5 2.25C11.271 2.25 12.9721 2.89202 14.2871 4.05902C14.7071 4.43502 15.0761 4.84401 15.3911 5.28101C15.5921 5.26001 15.794 5.25 16 5.25C19.171 5.25 21.75 7.829 21.75 11ZM13.47 18.47L12.75 19.19V11C12.75 10.586 12.414 10.25 12 10.25C11.586 10.25 11.25 10.586 11.25 11V19.189L10.53 18.469C10.237 18.176 9.76199 18.176 9.46899 18.469C9.17599 18.762 9.17599 19.237 9.46899 19.53L11.469 21.53C11.538 21.599 11.6209 21.654 11.7129 21.692C11.8049 21.73 11.902 21.75 12 21.75C12.098 21.75 12.1951 21.73 12.2871 21.692C12.3791 21.654 12.462 21.599 12.531 21.53L14.531 19.53C14.824 19.237 14.824 18.762 14.531 18.469C14.237 18.177 13.763 18.177 13.47 18.47Z" fill="currentColor"/>
</svg>

<svg xmlns="http://www.w3.org/2000/svg" width="24" height="24" fill="none"><path fill="currentColor" d="M21.75 11a5.762 5.762 0 0 1-4.602 5.635.75.75 0 0 1-.296-1.47A4.255 4.255 0 0 0 20.25 11 4.254 4.254 0 0 0 16 6.75a4.44 4.44 0 0 0-.831.077.747.747 0 0 1-.776-.343 6.015 6.015 0 0 0-1.104-1.306A5.706 5.706 0 0 0 9.5 3.75 5.756 5.756 0 0 0 3.75 9.5a5.737 5.737 0 0 0 3.54 5.308.75.75 0 0 1-.58 1.384A7.232 7.232 0 0 1 2.25 9.5c0-3.998 3.252-7.25 7.25-7.25 1.771 0 3.472.642 4.787 1.809.42.376.79.785 1.104 1.222A5.756 5.756 0 0 1 21.75 11Zm-8.28 7.47-.72.72V11a.75.75 0 0 0-1.5 0v8.189l-.72-.72a.75.75 0 1 0-1.061 1.061l2 2a.749.749 0 0 0 .818.162.749.749 0 0 0 .244-.162l2-2a.75.75 0 1 0-1.061-1.06Z"/></svg>
